X: 1
T: String Quartet in F Minor opus 55 no 2 mvt 3
C: Franz Joseph Haydn
%%abc-version 2.0
%%abcx-abcm2ps-target-version 5.9.1 (29 Sep 2008)
%%abc-creator hum2abc beta
%%abcx-conversion-date 2021/02/14 14:38:31
%%abc-copyright Copyright (c) 1994, 2000 Center for Computer Assisted Research in the Humanities
%%abc-edited-by Frances Bennion
%%abcx-initial-encoding-date 1997/04/15
%%gracespace 0 6 6
%%humdrum-veritas 1418091707
%%humdrum-veritas-data 3645743684
%%linebreak <none>
%%barnumbers 0
L: 1/4
M: 3/4
N: Derived from op55n2-03.krn
Q: "Menuetto: Allegretto"
%%staves [1 2 3 4]
V: 1
V: 2
V: 3 clef=alto
V: 4 clef=bass
K: Ab
[V:1]z2 z [I:setbarnb1] |
[V:2]z2 z |
[V:3]z2 C |
[V:4]z2 z |
[V:1]z2 c |
[V:2]z3 |
[V:3]=A, F, =E,/F,/ |
[V:4]z3 |
[V:1]c c c |
[V:2]z3 |
[V:3]B, =A, =E,/F,/ |
[V:4]z3 |
[V:1]c B B |
[V:2]z3 |
[V:3]=D >=E F/G/ |
[V:4]z3 |
[V:1]B =A A |
[V:2]z3 |
[V:3]C >=D =E/F/ |
[V:4]z3 |
[V:1]=A/G/ B/A/ G/F/ |
[V:2]z3 |
[V:3]B,2 =B, |
[V:4]z3 |
[V:1]F/=E/ =D/C/ c |
[V:2]z3 |
[V:3]C2 z |
[V:4]z3 |
[V:1]=A F =E/F/ |
[V:2]z3 |
[V:3]z2 C |
[V:4]z3 |
[V:1]B =A =E/F/ |
[V:2]z3 |
[V:3]C C C |
[V:4]z3 |
[V:1]=d >=e f/g/ |
[V:2]z3 |
[V:3]C B, B, |
[V:4]z3 |
[V:1]c >=d =e/f/ |
[V:2]z3 |
[V:3]B, =A, A, |
[V:4]z3 |
[V:1]=e/=d/ c/B/ =A/G/ |
[V:2]z3 |
[V:3]B,2 C |
[V:4]z3 |
[V:1]F z2 |
[V:2]z3 |
[V:3]F F, z |
[V:4]z2 C |
[V:1]z3 |
[V:2]z2 c |
[V:3]z3 |
[V:4]=A, F, =E,/F,/ |
[V:1]z2 c'/=a/ |
[V:2]c c c |
[V:3]z3 |
[V:4]B, =A, =E,/F,/ |
[V:1]g/f/ b/=a/ g/f/ |
[V:2]c B B |
[V:3]z3 |
[V:4]=D >=E F/G/ |
[V:1]f/=e/ =a/g/ f/e/ |
[V:2]B =A A |
[V:3]z3 |
[V:4]C >=D =E/F/ |
[V:1]=d/=d'/ d'/c'/ b/=a/ |
[V:2]=A/G/ B/A/ G/F/ |
[V:3]z3 |
[V:4]B,2 =B, |
[V:1]g z2 |
[V:2]F/=E/ =D/C/ c |
[V:3]z2 =E, |
[V:4]C z2 |
[V:1]z3 |
[V:2]=A F =E/F/ |
[V:3]F, =A, B,/A,/ |
[V:4]z2 C |
[V:1]z3 |
[V:2]B =A =E/F/ |
[V:3]=E, F, =A, |
[V:4]C C C |
[V:1]=A/=a/ B/b/ z |
[V:2]=d >=e f/g/ |
[V:3]^F, G, =F, |
[V:4]C B, B, |
[V:1]G/g/ =A/=a/ z |
[V:2]c >=d =e/f/ |
[V:3]=E, F, C |
[V:4]B, =A, =A,, |
[V:1]c'/b/ =a/g/ f/=e/ |
[V:2]=e/=d/ c/B/ =A/G/ |
[V:3]=D z C/B,/ |
[V:4]B,,2 C, |
[V:1]f z z |
[V:2]F z z |
[V:3]=A, z z |
[V:4]F,, F, C, |
[V:1]z3 |
[V:2]z2 F |
[V:3]z2 =D |
[V:4]C, C, C, |
[V:1]z3 |
[V:2]F F F |
[V:3]=D D D |
[V:4]C, =B,, B,, |
[V:1]z2 c |
[V:2]F G G |
[V:3]=D =E E |
[V:4]=B,, _B,, B,, |
[V:1]c c c |
[V:2]G =A A |
[V:3]=E ^F F |
[V:4]B,, =A,, A,, |
[V:1]c B B |
[V:2]=A G G |
[V:3]^F G ^C |
[V:4]G,,2 ^C,, |
[V:1]B =A =d |
[V:2]G ^F =A |
[V:3]=D2 ^F, |
[V:4]=D,,3- |
[V:1]B G ^F/G/ |
[V:2]B z2 |
[V:3]G, B, C/B,/ |
[V:4]D,,3- |
[V:1]c B ^F/G/ |
[V:2]=A G z |
[V:3]^F, G, z |
[V:4]D,,3- |
[V:1]e =d ^c/d/ |
[V:2]^F G z |
[V:3]C B, z |
[V:4]D,,3- |
[V:1]b =a c |
[V:2]^c =d =A |
[V:3]G ^F F |
[V:4]D,,2 ^F, |
[V:1]B =d/c/ B/=A/ |
[V:2]G B/=A/ G/^F/ |
[V:3]G B, =D |
[V:4]G, B,, =D, |
[V:1]G z B |
[V:2]G z2 |
[V:3]G, z2 |
[V:4]G, G,, z |
[V:1]G E =D/E/ |
[V:2]B,3 |
[V:3]G,2 A,/G,/ |
[V:4]E,,3- |
[V:1]A G B |
[V:2]F E B |
[V:3]=D, E, z |
[V:4]E,,2 z |
[V:1]B B B |
[V:2]G E =D/F/ |
[V:3]z3 |
[V:4]z2 B,,/=D,/ |
[V:1]B =B c |
[V:2]A G =E/G/ |
[V:3]z3 |
[V:4]E,2 C,/=E,/ |
[V:1]c ^c =d |
[V:2]B =A ^F/A/ |
[V:3]z3 |
[V:4]F,2 =D,/^F,/ |
[V:1]=d e =e |
[V:2]c B B |
[V:3]z3 |
[V:4]G,3 |
[V:1]f =d =B |
[V:2]=A F =D |
[V:3]z3 |
[V:4]F,2 G, |
[V:1]=d c c |
[V:2]F =E G |
[V:3]z2 =E, |
[V:4]C,3- |
[V:1]=A F =E/F/ |
[V:2]=A z2 |
[V:3]F, =A, B,/A,/ |
[V:4]C,3- |
[V:1]B =A =E/F/ |
[V:2]G F z |
[V:3]=E, F, =A, |
[V:4]C,3- |
[V:1]=d >=e f/g/ |
[V:2][=AF] [BG] [BG] |
[V:3]C B, B, |
[V:4]C,3- |
[V:1]c >=d =e/f/ |
[V:2][=EG] [=AF] c |
[V:3]B, =A, A, |
[V:4]C,2 =A,, |
[V:1]=e/=d/ c/B/ =A/G/ |
[V:2]c/B/ =A/G/ F/=E/ |
[V:3]B,2 C |
[V:4]B,,2 C, |
[V:1]F z =E/F/ |
[V:2]F z2 |
[V:3]=D z2 |
[V:4]=D, z2 |
[V:1]B =A =E/F/ |
[V:2]F2 z |
[V:3]=D C z |
[V:4]z3 |
[V:1]=d c =B/c/ |
[V:2]F2 z |
[V:3]B, =A, z |
[V:4]z3 |
[V:1]b/g/ =e/c/ B/G/ |
[V:2][=E3G,3] |
[V:3]B,3 |
[V:4]C,3 |
[V:1][=AfF] z F |
[V:2][F=A,] z z |
[V:3]=A, z z |
[V:4]F,, z z |
[V:1]=E G D |
[V:2]z2 D |
[V:3]z2 D, |
[V:4]z2 D,, |
[V:1]C2 G |
[V:2]C2 z |
[V:3]C,2 z |
[V:4]C,,2 z |
[V:1]F A D |
[V:2]z2 D |
[V:3]z2 D, |
[V:4]z2 D,, |
[V:1]C2 A |
[V:2]C2 z |
[V:3]C,2 z |
[V:4]C,,2 z |
[V:1]G B D |
[V:2]z2 D |
[V:3]z2 D, |
[V:4]z2 D,, |
[V:1]C e d |
[V:2]C c B |
[V:3]C,2 F |
[V:4]C,,2 D,, |
[V:1]c e G |
[V:2]A c D |
[V:3]E2 B, |
[V:4]E,,3 |
[V:1]A z A |
[V:2]C z z |
[V:3]A, z z |
[V:4]A,, A, z |
[V:1]G B E |
[V:2]z2 B, |
[V:3]z3 |
[V:4]z2 G, |
[V:1]=D2 F |
[V:2]_C2 =D |
[V:3]z2 _C |
[V:4]A,2 A, |
[V:1]E B _c |
[V:2]E G A |
[V:3]B, E, =D, |
[V:4]G, E, =D, |
[V:1]B2 e |
[V:2]G2 z |
[V:3]E,2 z |
[V:4]E,2 z |
[V:1]=d f _c |
[V:2]z2 A |
[V:3]z2 =D |
[V:4]z3 |
[V:1]B e __B |
[V:2]G2 _G |
[V:3]E2 C |
[V:4]z3 |
[V:1]A d c |
[V:2]F3- |
[V:3]D3 |
[V:4]z3 |
[V:1]B3- |
[V:2]F B A |
[V:3]=D3 |
[V:4]z3 |
[V:1]B e d |
[V:2]G3- |
[V:3]E3 |
[V:4]z3 |
[V:1]c3- |
[V:2]G c B |
[V:3]=E3 |
[V:4]z3 |
[V:1]c a g |
[V:2]A c B |
[V:3]F F, G, |
[V:4]z3 |
[V:1]f d =B |
[V:2]A2 F |
[V:3]A, F, G, |
[V:4]z3 |
[V:1]c G A |
[V:2]=E E F |
[V:3]C, C =B, |
[V:4]z3 |
[V:1]G z2 |
[V:2]=E z2 |
[V:3]C C, z |
[V:4]z2 F,, |
[V:1]z2 f- |
[V:2]z2 =B- |
[V:3]z2 F- |
[V:4]=E,, G,, D,, |
[V:1]f =e z |
[V:2]B c z |
[V:3]F G z |
[V:4]C,,2 G,, |
[V:1]z2 a- |
[V:2]z2 f- |
[V:3]z2 =B- |
[V:4]F,, A,, D,, |
[V:1]a g z |
[V:2]f =e z |
[V:3]B c z |
[V:4]C,,2 A,, |
[V:1]z2 b- |
[V:2]z2 f |
[V:3]z2 F |
[V:4]G,, B,, D,, |
[V:1]b g d' |
[V:2]=e2 [eB] |
[V:3]G2 G |
[V:4]C,,3- |
[V:1]d' >c' b//a//g//f// |
[V:2][=e3-B3] |
[V:3]G3- |
[V:4]C,,3- |
[V:1]=e <z b |
[V:2][=eB] z c |
[V:3]G z =E |
[V:4]C,, z z |
[V:1]a c' f |
[V:2]c2 c |
[V:3]F2 A |
[V:4]z3 |
[V:1]=e g d |
[V:2]B2 A |
[V:3]G2 F |
[V:4]z3 |
[V:1]c g =B |
[V:2]G2 F |
[V:3]=E2 =D |
[V:4]z3 |
[V:1]B g z |
[V:2]=E2 z |
[V:3]C2 z |
[V:4]z3 |
[V:1]z2 D |
[V:2]z2 B, |
[V:3]z2 G, |
[V:4]z2 =E,, |
[V:1]C A =B, |
[V:2]A,2 A, |
[V:3]A,2 F, |
[V:4]F,,2 D,, |
[V:1]C c =E |
[V:2]A,2 B, |
[V:3]F,2 G, |
[V:4]C,,2 C,, |
[V:1]F z2 |]
[V:2]A, z2 |]
[V:3]F, z2 |]
[V:4]F,, z2 |]

